Simply white circles/scalable/places/folder-documents.svg

<?xml version="1.0" encoding="UTF-8" standalone="no"?>
<!-- Created with Inkscape (http://www.inkscape.org/) -->

<svg
   xmlns:dc="http://purl.org/dc/elements/1.1/"
   xmlns:cc="http://creativecommons.org/ns#"
   xmlns:rdf="http://www.w3.org/1999/02/22-rdf-syntax-ns#"
   xmlns:svg="http://www.w3.org/2000/svg"
   xmlns="http://www.w3.org/2000/svg"
   xmlns:sodipodi="http://sodipodi.sourceforge.net/DTD/sodipodi-0.dtd"
   xmlns:inkscape="http://www.inkscape.org/namespaces/inkscape"
   width="48"
   height="48"
   viewBox="0 0 12.7 12.7"
   version="1.1"
   id="svg829"
   inkscape:version="0.92.3 (2405546, 2018-03-11)"
   sodipodi:docname="folder-documents.svg">
  <defs
     id="defs823" />
  <sodipodi:namedview
     id="base"
     pagecolor="#ffffff"
     bordercolor="#666666"
     borderopacity="1.0"
     inkscape:pageopacity="0.0"
     inkscape:pageshadow="2"
     inkscape:zoom="3.6239223"
     inkscape:cx="16.222583"
     inkscape:cy="22.50598"
     inkscape:document-units="mm"
     inkscape:current-layer="layer1"
     showgrid="false"
     showguides="false"
     inkscape:guide-bbox="true"
     inkscape:window-width="1366"
     inkscape:window-height="719"
     inkscape:window-x="0"
     inkscape:window-y="25"
     inkscape:window-maximized="1"
     scale-x="1.9"
     units="px" />
  <metadata
     id="metadata826">
    <rdf:RDF>
      <cc:Work
         rdf:about="">
        <dc:format>image/svg+xml</dc:format>
        <dc:type
           rdf:resource="http://purl.org/dc/dcmitype/StillImage" />
        <dc:title></dc:title>
      </cc:Work>
    </rdf:RDF>
  </metadata>
  <g
     inkscape:label="Capa 1"
     inkscape:groupmode="layer"
     id="layer1"
     transform="translate(0,-284.3)">
    <path
       style="fill:#e6e6e6;fill-opacity:1;stroke-width:0.52516764"
       d="M 23.978516 0.27539062 A 23.770509 23.770509 0 0 0 0.20703125 24.046875 A 23.770509 23.770509 0 0 0 23.978516 47.816406 A 23.770509 23.770509 0 0 0 47.748047 24.046875 A 23.770509 23.770509 0 0 0 23.978516 0.27539062 z M 23.910156 3.8144531 A 20.436071 20.436071 0 0 1 44.345703 24.25 A 20.436071 20.436071 0 0 1 23.910156 44.685547 A 20.436071 20.436071 0 0 1 3.4726562 24.25 A 20.436071 20.436071 0 0 1 23.910156 3.8144531 z M 13.677734 12.488281 C 12.802281 12.488281 12.097656 13.192906 12.097656 14.068359 L 12.097656 14.833984 C 12.097656 15.709438 12.802281 16.414062 13.677734 16.414062 L 34.337891 16.414062 C 35.213344 16.414062 35.919922 15.709438 35.919922 14.833984 L 35.919922 14.068359 C 35.919922 13.192906 35.213344 12.488281 34.337891 12.488281 L 13.677734 12.488281 z M 13.677734 19.097656 C 12.802281 19.097656 12.097656 19.802281 12.097656 20.677734 L 12.097656 21.443359 C 12.097656 22.318813 12.802281 23.023437 13.677734 23.023438 L 34.337891 23.023438 C 35.213344 23.023438 35.919922 22.318813 35.919922 21.443359 L 35.919922 20.677734 C 35.919922 19.802281 35.213344 19.097656 34.337891 19.097656 L 13.677734 19.097656 z M 13.677734 25.707031 C 12.802281 25.707031 12.097656 26.411656 12.097656 27.287109 L 12.097656 28.054688 C 12.097656 28.93014 12.802281 29.634766 13.677734 29.634766 L 34.337891 29.634766 C 35.213344 29.634766 35.919922 28.93014 35.919922 28.054688 L 35.919922 27.287109 C 35.919922 26.411656 35.213344 25.707031 34.337891 25.707031 L 13.677734 25.707031 z M 13.677734 32.318359 C 12.802281 32.318359 12.097656 33.022984 12.097656 33.898438 L 12.097656 34.664062 C 12.097656 35.539516 12.802281 36.244141 13.677734 36.244141 L 34.337891 36.244141 C 35.213344 36.244141 35.919922 35.539516 35.919922 34.664062 L 35.919922 33.898438 C 35.919922 33.022984 35.213344 32.318359 34.337891 32.318359 L 13.677734 32.318359 z "
       transform="matrix(0.26458333,0,0,0.26458333,0,284.3)"
       id="path1374" />
  </g>
</svg>

<?xml version="1.0" encoding="UTF-8" standalone="no"?>
<svg
   xmlns:dc="http://purl.org/dc/elements/1.1/"
   xmlns:cc="http://creativecommons.org/ns#"
   xmlns:rdf="http://www.w3.org/1999/02/22-rdf-syntax-ns#"
   xmlns:svg="http://www.w3.org/2000/svg"
   xmlns="http://www.w3.org/2000/svg"
   xmlns:sodipodi="http://sodipodi.sourceforge.net/DTD/sodipodi-0.dtd"
   xmlns:inkscape="http://www.inkscape.org/namespaces/inkscape"
   width="48"
   height="48"
   version="1.1"
   viewBox="0 0 12.7 12.7"
   id="svg10"
   sodipodi:docname="folder-documents.svg"
   inkscape:version="0.92.3 (2405546, 2018-03-11)">
  <defs
     id="defs14" />
  <sodipodi:namedview
     pagecolor="#ffffff"
     bordercolor="#666666"
     borderopacity="1"
     objecttolerance="10"
     gridtolerance="10"
     guidetolerance="10"
     inkscape:pageopacity="0"
     inkscape:pageshadow="2"
     inkscape:window-width="883"
     inkscape:window-height="480"
     id="namedview12"
     showgrid="false"
     inkscape:zoom="4.9166667"
     inkscape:cx="24"
     inkscape:cy="24"
     inkscape:window-x="0"
     inkscape:window-y="25"
     inkscape:window-maximized="0"
     inkscape:current-layer="svg10" />
  <metadata
     id="metadata2">
    <rdf:RDF>
      <cc:Work
         rdf:about="">
        <dc:format>image/svg+xml</dc:format>
        <dc:type
           rdf:resource="http://purl.org/dc/dcmitype/StillImage" />
        <dc:title></dc:title>
      </cc:Work>
    </rdf:RDF>
  </metadata>
  <g
     transform="translate(0,-284.3)"
     fill="#1a1a1a"
     id="g8"
     style="fill:#e6e6e6">
    <path
       d="m6.3444 284.37a6.2893 6.2893 0 0 0 -6.2894 6.2894 6.2893 6.2893 0 0 0 6.2894 6.2891 6.2893 6.2893 0 0 0 6.2891 -6.2891 6.2893 6.2893 0 0 0 -6.2891 -6.2894zm-0.018184 0.9363a5.407 5.407 0 0 1 5.4071 5.4071 5.407 5.407 0 0 1 -5.4071 5.4069 5.407 5.407 0 0 1 -5.4071 -5.4069 5.407 5.407 0 0 1 5.4071 -5.4071z"
       stroke-width=".13895"
       id="path4"
       style="fill:#e6e6e6" />
    <path
       transform="matrix(.26458 0 0 .26458 0 284.3)"
       d="m13.678 12.488c-0.87545 0-1.5801 0.70462-1.5801 1.5801v0.76562c0 0.87545 0.70462 1.5801 1.5801 1.5801h20.66c0.87545 0 1.582-0.70462 1.582-1.5801v-0.76562c0-0.87545-0.70658-1.5801-1.582-1.5801h-20.66zm0 6.6094c-0.87545 0-1.5801 0.70462-1.5801 1.5801v0.76562c0 0.87545 0.70462 1.5801 1.5801 1.5801h20.66c0.87545 0 1.582-0.70462 1.582-1.5801v-0.76562c0-0.87545-0.70658-1.5801-1.582-1.5801h-20.66zm0 6.6094c-0.87545 0-1.5801 0.70462-1.5801 1.5801v0.76758c0 0.87545 0.70462 1.5801 1.5801 1.5801h20.66c0.87545 0 1.582-0.70462 1.582-1.5801v-0.76758c0-0.87545-0.70658-1.5801-1.582-1.5801h-20.66zm0 6.6113c-0.87545 0-1.5801 0.70462-1.5801 1.5801v0.76562c0 0.87545 0.70462 1.5801 1.5801 1.5801h20.66c0.87545 0 1.582-0.70462 1.582-1.5801v-0.76562c0-0.87545-0.70658-1.5801-1.582-1.5801h-20.66z"
       id="path6"
       style="fill:#e6e6e6" />
  </g>
</svg>
